X: 20819
T: Johnny Wilmot's Fancy
R: reel
M: 4/4
K: Cmajor
G|c2 GE CEGF|D_B,B,D F_BFD|c/c/c GE CEGg|ecdB c/c/c c:|
G|c/c/c ce gagf|d_Bfd BcdB|c/c/c ce gagf|d_Bfd c/c/c c=B|
c/c/c ce gagf|d_Bfd BcdB|cedf egfa|gefd c/c/c c||

